icons/sd-card-mini-fill.svg

<svg viewBox="0 0 24 24" fill="currentColor" xmlns="http://www.w3.org/2000/svg">
    <path d="M7 2H19C19.5523 2 20 2.44772 20 3V21C20 21.5523 19.5523 22 19 22H5C4.44772 22 4 21.5523 4 21V12.4196C4 12.1549 4.10493 11.901 4.29179 11.7135L5.8541 10.1464C5.94754 10.0526 6 9.92569 6 9.79335V3C6 2.44772 6.44772 2 7 2ZM15 4V8H17V4H15ZM12 4V8H14V4H12ZM9 4V8H11V4H9Z"/>
</svg>

<svg xmlns="http://www.w3.org/2000/svg" viewBox="0 0 24 24">
    <g>
        <path fill="none" d="M0 0h24v24H0z"/>
        <path d="M7 2h12a1 1 0 0 1 1 1v18a1 1 0 0 1-1 1H5a1 1 0 0 1-1-1v-8.58a1 1 0 0 1 .292-.706l1.562-1.568A.5.5 0 0 0 6 9.793V3a1 1 0 0 1 1-1zm8 2v4h2V4h-2zm-3 0v4h2V4h-2zM9 4v4h2V4H9z"/>
    </g>
</svg>
